X: 569
T: The snow on the hills
C: anon.
O: Ireland
B: Francis O'Neill: "The Dance Music of Ireland" (1907) no. 569
R: Reel
Z: Transcribed by Frank Nordberg - http://www.musicaviva.com
F: http://www.musicaviva.com/abc/tunes/ireland/oneill-1001/oneill-1001-056
9.abc
M: C|
L: 1/8
K: G
G2(dG) BGdG|GABd cAFA|G2(dG) Bcde|fdcB cAFA|G2(dG) BGdG|GABd cAFA|GABc df
eg|fdcA GABc||
dgga bgaf|dggf d2(cA)|dgga bgag|fdcB GABc|dgga bgag|dggf defg|abag fgfe|d
efd cAFA|]
W:
W:
W: From Musica Viva - http://www.musicaviva.com
W: the Internet center for free sheet music downloads.


